X:1
T:Title
%%score ( 1 2 ) { 3 | 4 }
L:1/8
Q:1/4=105
M:9/8
K:F
V:1 treble nm="Grand Piano, Soprano"
V:2 treble 
V:3 treble nm="Choir Pad, Birth of Christ the Lord"
V:4 bass 
V:1
 F[FG][FA] [Ac]3 [Bd]3 | [Ac][FA]F [FA]3 [EG]3 | [EG][EG][FA] [EB]3 [EB]3 | [GB][Ac][GB] [FA]6 | %4
w: By~William~Augustine~Ogden * * * *||||
 F[FG][FA] [Ac]3 [Bd]3 | [Ac][FA]F [FA]3 [EG]3 | [EG][EG][FA] [EB]3 [EB]3 | [FA]2 [EG] F6 | %8
w: ||||
 [EG][CE][EG] [Ec]3 [Ge]3 | [Fd][Ec][D=B] [Ec]3 [EG]3 | [FA][FA][FA] G3 [Gc]3 | [Gd]2 [Ge] [Gd]6 | %12
w: ||||
 [EG][CE][EG] [Ec]3 [Ge]3 | [Fd][Ec][D=B] [Ec]3 [EG]3 | [FA][FA][FA] G3 [Ec]2 [Ec] | %15
w: |||
 [F=B]2 [Fd] [Ec]6 | z3 f6 | [Ac][Bd][Ac] [FA]3 F3 | FGA EEE E2 [Bd] | [Ac]2 [GB] [FA]6 | %20
w: |||||
 cde f-[Af-][Af-] [A-f]>A[Bd] | [Ac][Bd][Ac] [FA]3 F3 | F[FG][FA] [EG]2 [Bd] [Ac]2 [GB] | %23
w: |||
 [FA]2 [CG] [CF]6- | [CF]3 z3 z3 |] %25
w: ||
V:2
 x9 | x9 | x9 | x9 | x9 | x9 | x9 | x9 | x9 | x9 | x9 | x9 | x9 | x9 | x9 | x9 | cde AAA A2 [Bd] | %17
 x9 | z3 G6 | x9 | z3 .A3 z3 | x9 | x9 | x9 | x9 |] %25
V:3
 A,B,C F3 F3 | FCA, C3 C3 | CCC C3 C3 | C2[K:bass] B, C6 | A,B,C[K:treble] F3 F3 | FCA, C3 C3 | %6
 CCC C3 C3 | C2 B, A,6 | CCC G,3 C3 | =B,CD G,3 C3 | CCC C3 E3 | =B,2 C B,6 | CCC G,3 C3 | %13
 =B,CD G,3 C3 | CCC C3 C2 C | D2 =B, C6 | z3 CCC C2 F | FFF C3 A,3 | z3 CCC C2 C | C2 C C6 | %20
 z3 CCC C2 F | FFF C3[K:bass] A,3 | A,B,C C3- C2 C | C2 B, A,6- | A,3 z3 z3 |] %25
V:4
 F,F,F, F,3 F,3 | F,F,F, C,3 C,3 | B,B,A, G,3 G,3 | C,2 C, F,6 | F,F,F, F,3 F,3 | F,F,F, C,3 C,3 | %6
 B,B,A, G,3 G,3 | C,2 C, F,6 | C,C,C, C,3 C,3 | G,,G,,G,, C,3 C,3 | F,F,F, E,3 C,3 | G,2 G, G,6 | %12
 C,C,C, C,3 C,3 | G,,G,,G,, C,3 C,3 | F,F,F, E,3 A,2 A, | G,2 G, C,6 | z3 F,F,F, F,2 F, | %17
 F,F,F, F,3 F,3 | z3 C,C,C, C,2 C, | C,2 C, F,6 | z3 F,F,F, F,2 F, | F,F,F, F,3 F,3 | %22
 z3 C,C,C, C,2 C, | C,2 C, [F,,F,]6- | [F,,F,]3 z3 z3 |] %25

